resources/assets/features-icons/analytics.svg

<?xml version="1.0" encoding="UTF-8"?>
<svg width="62px" height="63px" viewBox="0 0 62 63" version="1.1" xmlns="http://www.w3.org/2000/svg" xmlns:xlink="http://www.w3.org/1999/xlink">
    <!-- Generator: Sketch 52.5 (67469) - http://www.bohemiancoding.com/sketch -->
    <title>Global/Icons/ipad</title>
    <desc>Created with Sketch.</desc>
    <defs>
        <linearGradient x1="0%" y1="100%" x2="95.2574922%" y2="0%" id="linearGradient-1">
            <stop stop-color="#F04C23" offset="0%"></stop>
            <stop stop-color="#F2B031" offset="100%"></stop>
        </linearGradient>
        <path d="M47.2777779,11.4583333 C47.2777779,8.58184896 44.9770176,6.25 42.138889,6.25 L39.5694445,6.25 L39.5694443,6.25 C36.731313,6.25000013 34.4305554,8.58185156 34.4305554,11.4583333 C34.4305554,11.4583333 34.4305554,11.4583333 34.4305554,11.4583333 L34.4305554,58.3333333 L47.2777779,58.3333333 L47.2777779,11.4583333 Z M65.263889,21.875 C65.263889,18.9985156 62.9631288,16.6666667 60.1250001,16.6666667 L57.5555556,16.6666667 L57.5555554,16.6666667 C54.7174242,16.6666668 52.4166665,18.9985182 52.4166665,21.875 C52.4166665,21.875 52.4166665,21.875 52.4166665,21.875 L52.4166665,58.3333333 L65.263889,58.3333333 L65.263889,21.875 Z M29.2916667,32.2916667 C29.2916667,29.4151823 26.9909065,27.0833333 24.1527778,27.0833333 L21.5833334,27.0833333 L21.5833331,27.0833333 C18.7452019,27.0833335 16.4444442,29.4151849 16.4444442,32.2916667 C16.4444442,32.2916667 16.4444442,32.2916667 16.4444442,32.2916667 L16.4444442,58.3333333 L29.2916667,58.3333333 L29.2916667,32.2916667 Z M65.263889,63.5416667 L11.3055556,63.5416667 L11.3055556,8.85416667 C11.3055556,7.41592448 10.1551767,6.25 8.73611112,6.25 C7.31704549,6.25 6.16666667,7.41592448 6.16666667,8.85416667 L6.16666667,68.75 L65.263889,68.75 C66.6829545,68.7500001 67.8333333,67.5840755 67.8333333,66.1458333 C67.8333334,64.7075911 66.6829545,63.5416667 65.2638889,63.5416667 Z" id="path-2"></path>
    </defs>
    <g id="Desktop" stroke="none" stroke-width="1" fill="none" fill-rule="evenodd">
        <g id="1-Home" transform="translate(-1129.000000, -1132.000000)">
            <g id="Home/Sections" transform="translate(0.000000, 1020.000000)">
                <g id="Benefits">
                    <g id="Content" transform="translate(186.000000, 0.000000)">
                        <g id="Benefits" transform="translate(0.000000, 106.000000)">
                            <g id="Global/Icons/ipad-+-Easy-event-set-up-Mask" transform="translate(880.000000, 0.000000)">
                                <g id="Icon/Graph-Bar" transform="translate(57.000000, 0.000000)">
                                    <rect id="24pt-Bounding-Box" x="0" y="0" width="74" height="75"></rect>
                                    <mask id="mask-3" fill="white">
                                        <use xlink:href="#path-2"></use>
                                    </mask>
                                    <use id="Fill" fill="url(#linearGradient-1)" fill-rule="evenodd" xlink:href="#path-2"></use>
                                </g>
                            </g>
                        </g>
                    </g>
                </g>
            </g>
        </g>
    </g>
</svg>

<svg xmlns="http://www.w3.org/2000/svg" width="62" height="63" xmlns:xlink="http://www.w3.org/1999/xlink"><title>Global/Icons/ipad</title><desc>Created with Sketch.</desc><defs><linearGradient id="b" x1="0%" x2="95.257%" y1="100%" y2="0%"><stop stop-color="#F04C23" offset="0%"/><stop stop-color="#F2B031" offset="100%"/></linearGradient><path id="a" d="M47.28 11.46c0-2.88-2.3-5.2-5.14-5.2h-2.57c-2.84 0-5.14 2.32-5.14 5.2v46.87h12.85V11.46zm17.98 10.4c0-2.86-2.3-5.2-5.13-5.2h-2.57c-2.84 0-5.14 2.34-5.14 5.2 0 .02 0 .02 0 .02v36.45h12.84V21.88zM29.3 32.3c0-2.88-2.3-5.22-5.15-5.22h-2.57c-2.83 0-5.14 2.34-5.14 5.2v26.05H29.3V32.3zm35.96 31.24H11.3V8.84c0-1.42-1.14-2.6-2.56-2.6-1.42 0-2.57 1.18-2.57 2.6v59.9h59.1c1.4 0 2.56-1.16 2.56-2.6 0-1.43-1.15-2.6-2.57-2.6z"/></defs><g fill="none"><g><g><g id="Benefits"><g><g><g><g transform="translate(-6 -6)"><path d="M0 0h74v75H0z"/><mask><use xlink:href="#a"/></mask><use fill="url(#b)" xlink:href="#a"/></g></g></g></g></g></g></g></g></svg>
